X:1
T:James Gibb editions
T:Was hast du verwirket - Schütz
T:#
%%score 1 2
L:1/8
Q:1/4=108
M:4/4
K:C
V:1 treble nm="Alto"
V:2 bass nm="Continuo"
V:1
"^Was hast du verwirket, SWV 307""^Heinrich Schütz\n(1585-1672)" z2 D2 A,2 A,B, | (^C3 D/E/) C4 | %2
w: Was hast du ver-|wir\- * * ket,|
 z2 F2 ^C2 CD | (E3 F/G/) E4 | z2 F2 z FED | G2 A3 G F2 | E4 G2 F2 | E8 | D4 z A,A,A, | %9
w: Was hast du ver-|wir\- * * ket,|o du al- ler-|hold- se- lig- ster|Knab, Je- su|Chri-|ste, dass du al-|
 A,2 B,2 C2 C2 | C2 (B,2 C4) | z2 E2 ^G,2 G,A, | (B,3 C/D/) B,4 | C2 z C B,A, D2- | DE C2 B,4 | %15
w: so ver- ur- theilt|wa- rest? *|Was hast du be-|gan\- * * gen,|o du al- ler freund\-|* lich- ster Jüng-|
 B,4 z B,A,B, | ^C2 B,C D2 A,A, | B,2 =C2 A,4 | B,8 | z2 CG, ^G,2 G,G, | A,2 A,2 z2 A,^G, | %21
w: ling, dass man so|ü- bel und kläg- lich mit|dir ge- han-|delt?|Was ist doch~ dein Ver-|bre- chen und Miss-|
 B,2 B,2 z2 C!courtesy!=G, | ^G,2 G,2 A,2 C2- | C2 B, A, A,2 A,2 | z2 A,B, ^G,2 G,2 | %25
w: hand- lung? Was ist|dei- ne Schuld, was|* ist die Ur- sach|dei- nes To- des?|
 z2 C=G, ^G,2 G,G, | A,2 A,2 z A,A,^G, | B,2 B,2 z4 | z2 C2 E2 z E | F2 DD D2 D2- | D2 z D CCCB, | %31
w: Was ist doch~ die Ver-|wir- kung dei- ner Ver-|damm- niss?|O, ich, ich,|ich bin die Ur- sach|* und Pla- ge dei- nes|
 B,4 B,2 ^F2- | F2 z ^F GGGG | G2 G2 z =FFE | E4 E2 z G | A4- AFFF | F4 _E3 D | D4 D2 z D | %38
w: Lei- dens, ich,|* ich, ich bin die Ver-|schul- dung dei- nes Hin-|rich- tens, ich,|ich * bin das Ver-|dienst dei- nes|To- des, das|
 D2 ^C3 C B,2 | ^C4 C2 EE | E3 F G2 A2 | E4 D4 | z2 D2 F2 DD | D2 DC _B,3 B, | A,2 G,2 A,4 | %45
w: tod- wür- di- ge|La- ster, so an|dir ge- ro- chen|wor- den.|Ich, ich bin die|Öff- nung der Wun- den|dei- nes Lei-|
 A,4 z2 A,2 | B,4 C4- | C4 B,4 | (^C4 D4- | D4) ^C4 | D4 z2 D2 | E4 F4- | F4 E4 | (^F4 G4- | %54
w: dens, die|Angst dei\-|* ner|Pei\- *|* ni-|gung, die|Angst dei\-|* ner|Pei\- *|
 G4) ^F4 | !fermata!G8 | G2 z D E2 z B, | C2 z G A2 z E | F4 F3 E | E4 E4 | z2 C3 CDE | F4 G2 A2 | %62
w: * ni-|gung.|Ach, wo- hin, wo-|hin, wo- hin, wo-|hin, du Sohn|Got- tes,|hat sich dei- ne|De- muth ge-|
 (^CD/E/ D4) C2 | D4 D2 z A, | B,2 z ^F G2 z D | E4 C3 B, | B,4 B,4 | z2 G,3 G,A,B, | C4 D2 E2 | %69
w: nie\- * * * dri-|get, ach, wo-|hin, wo- hin, wo-|hin, du Sohn|Got- tes,|hat sich dei- ne|De- muth ge-|
 (^G,2 A,4) G,2 | A,2 z ^G A2 z E | F2 z ^C D2 z A, | _B,4 B,3 A, | A,4 A,4 | z2 A,3 A,_B,C | %75
w: nie\- * dri-|get, wo- hin, wo-|hin, wo- hin, wo-|hin, du Sohn|Got- tes,|hat sich dei- ne|
 D4 E2 F2 | (A,2 _B,4) A,2 | _B,2 z C D2 z A, | _B,2 F,3[Q:1/4=107] F,[Q:1/4=107]G,[Q:1/4=106]A, | %79
w: De- muth ge-|nie\- * dri-|get, wo- hin, wo-|hin hat sich dei- ne|
[Q:1/4=105] _B,4[Q:1/4=104] C2[Q:1/4=103] D2 |[Q:1/4=101] _B,6[Q:1/4=99] C2 | %81
w: De- muth ge-|nie- dri-|
[Q:1/4=95] !fermata!A,16 |] %82
w: get?|
V:2
 D,8 | A,,8 | D,,4 A,,3 _B,, | A,,8 | A,,4 _B,,2 =B,,2 | C,2 ^C,2 D,4 | A,,4 G,,4 | x4- x4 | %8
w: ||||6 * *|||4|
 D,4 D,4 | x2- x2 E,2 F,2 | x2- x2 C,4 | A,,4 E,3 F, | E,8 | E,2 F,2 ^F,2 G,2 | ^G,2 A,2 E,4- | %15
w: |5 6 *|4 *|||6 * * *||
 E,4 E,4 | A,,4 B,,2 ^F,2 | G,2 A,2 !courtesy!x2- x2 | E,8 | C,4 B,,4 | A,,4 F,,4 | E,,4 C,4 | %22
w: ||* * 7||* 6|* 6||
 B,,4 A,,4 | ^G,,4 A,,4 | x2- x2 E,,4 | C,4 B,,4 | A,,4 F,,4 | E,,4 z4 | A,,8 | D,8 | D,8 | %31
w: 6 *||7 *|* 6|* 6|||||
 E,4 E,4 | B,,4- B,,4 | B,,8 | C,4 C,4 | F,8 | F,8 | _B,,4 B,,4 | _B,,8 | A,,8 | A,,4 G,,2 ^F,,2 | %41
w: |5 6|||||||||
 A,,4 D,,4 | D,8 | _B,,3 A,, G,,4 | ^F,,2 G,,2 D,4- | D,4 D,4- | D,4 E,4 | F,4 G,4 | (x4- x4 | %49
w: |||||6 6||6|
 x4) x4 | D,4 G,,4- | G,,4 A,,4 | x4- x4 | (x4- x4 | x4) x4 | !fermata!G,,8 | E,2 B,,2 C,2 G,,2 | %57
w: ||6 6|4|||||
 A,,2 E,2 F,2 C,2 | D,2 _B,,4 G,,2 | A,,4 A,,4 | A,6 G,2 | F,4 E,2 D,2 | x2- x4 x2 | %63
w: ||||||
 D,4 _B,2 ^F,2 | G,2 D,2 E,2 B,,2 | C,2 A,,4 D,2 | E,8 | E,6 D,2 | C,4 B,,2 A,,2 | x2- x4 x2 | %70
w: |||||||
 A,,2 E,2 F,2 C,2 | D,2 A,,2 _B,,2 ^F,,2 | G,,2 _E,4 C,2 | D,4 D,4 | F,6 _E,2 | D,4 C,2 _B,,2 | %76
w: ||||||
 x2- x4 x2 | _B,,2 A,,2 B,,2 ^F,,2 | G,,2 D,4 C,2 | _B,,4 A,,2 ^F,,2 | G,,8 | !fermata!D,16 |] %82
w: 3||||||

